X:1
T:Benedicta et venerabilis
T:Costanzo Porta
T:Qui confidunt in Domino
C:Costanzo Porta
%%score [ 1 2 3 4 ]
L:1/8
Q:1/4=176
M:2/2
K:F
V:1 tenor nm="Cantus" snm="C"
V:2 tenor nm="Altus" snm="A"
V:3 bass3 nm="Tenor" snm="T"
V:4 bass nm="Bassus" snm="B"
V:1
 x8 | x8 |[M:4/2][K:treble-8] d16- | d8 d8 | c8 B8 | F4 B6 A2 d4- | d4 ^c4 c8 | z16 | z4 d8 G4 | %9
w: ||Qui|_ con-|fi- dunt|in Do- * *|* mi- no,||si- cut|
 c6 B2 A2 G2 A4 | B6 c2 d4 c2 B2 | c8 F8 | z16 | z8 z4 G4 | G4 G4 F6 F2 | D4 F8 F4 | G8 F4 D4 | %17
w: mons _ _ _ _|Si- * * * *|* on:||non|com- mo- ve- bi-|tur in ae-|ter- num, qui|
 A12 A4 | B8 B8 | A6 GF E4 c4- | c4 c4 c8- | c8 z8 | z16 | z16 | z16 | z8 z4 F4 | B12 A4 | %27
w: ha- bi-|tat in|Je- * * * ru-|* sa- lem.|_||||et|Do- mi-|
 G8 D4 F4 | G2 F2 D2 E2 F4 G4 | F4 D2 E2 F2 G2 A4- | A4 G4 A4 G4- | G2 F2 A2 B2 c8 | A8 z4 c4- | %33
w: nus in cir-|cu- * * * * i-|tu po- * * * *|* pu- li su-||i, po-|
 c4 c4 A8 | A16- | A8 ^G8 | z4 A4 A8- | A4 d8 =B4- | B4 e8 c4 | A16 | c12 c4 | d8 z8 | A8 A4 c4- | %43
w: * pu- li|su-|* i,|ex hoc|_ nunc et|_ us- que|in|sae- cu-|lum.|Qui- a non|
 c4 B4 A2 G2 F2 E2 | D4 E4 A8- | A4 F4 F4 c4- | c4 c4 A4 d4 | c8 A8 | z16 | z8 d8- | d4 d4 d8 | %51
w: _ re- lin- * * *|* quet Do-|* mi- nus vir-|* gam pec- ca-|to- rum||su-|* per sor-|
 G8 A8- | A4 A4 c8 | d4 A4 B2 c2 d4- | d4 c4 d8 | z4 d4 d4 d4 | c8 d8 | B4 A2 G2 B2 c2 d4 | c8 z8 | %59
w: tem, su-|* per sor-|tem ju- sto- * *|* * rum:|ut non ex-|ten- dant|ju- * * * * *|sti|
 A8 =B4 c4- | c4 F4 G8 | F8 z8 | z8 c8- | c8 c8 | c12 =B4 | =B8 z8 |[M:3/2] c6 d2 c4 | A6 c2 A4 | %68
w: ad i- ni-|* qui- ta-|tem|ma-|* nus|su- *|as,|be- ne- fac,|Do- mi- ne,|
 B8 A4 |[M:4/2] G8 B6 c2 | d8 d4 B4- | B2 AG A4 B8 | z4 G8 F4 | B4 A4 B4 c4 | d8 _e4 d4 | d12 c4 | %76
w: bo- nis,|et re- *|* ctis cor-|* * * * de.|De- cli-|nan- tes au- tem|in o- bli-|ga- ti-|
 B4 A4 z4 F4- | F4 E4 F6 E2 | G4 D4 F8 | G4 A4 B4 A4 | d6 B2 c8 | B8 z8 | z16 | z4 A4 A4 =B4 | %84
w: o- nes, De-|* cli- nan- *|* tes au-|tem in o- bli-|ga- ti- o-|nes,||ad- du- cet|
 c8 d6 d2 | c8 z4 d4 | B8 c6 B2 | A4 d8 ^c4 | d4 A4 d4 d4 | c12 A4 | A16 | z8 =B8- | B8 c8- | %93
w: Do- * mi-|nus cum|o- pe- *|* ran- ti-|bus i- ni- qui-|ta- *|tem.|Pax|_ su-|
 c8 c8 | d8 _e8 | d16- | d8 z8 | =B8 c8- | c8 c8 | d8 _e8 | d16- | !fermata!d16 |] %102
w: * per|Is- ra-|ël,|_|Pax su-|* per|Is- ra-|ël!|_|
V:2
 x8 | x8 |[M:4/2][K:treble-8] A16 | A12 B4- | B2 AG A4 B4 d4 | d12 A4 | A16- | A8 z8 | z16 | %9
w: ||Qui|con- fi-|* * * * dunt in|Do- mi-|no,|_||
 z4 c8 c4 | d8 B8 | A16- | A8 z8 | z4 d4 d4 d4 | B6 G2 A4 B4 | F4 A6 B2 c2 A2 | B8 A8 | z4 A4 d8- | %18
w: si- cut|mons Si-|on:|_|non com- mo-|ve- bi- tur in|ae- ter- * * *|* num,|qui ha-|
 d4 d4 d8 | c4 A6 G2 F4 | E4 A4 G8 | z4 A6 B2 c4 | F4 A8 c4 | B2 A2 B2 c2 d4 B4 | A8 c8- | c8 d8- | %26
w: * bi- tat|in Je- * *|ru- sa- lem.|Mon- * *|tes in cir-|cu- * * * * i-|tu e-|* jus;|
 d8 z4 c4 | d12 c4 | B8 A4 c4 | B2 A2 F2 G2 A2 B2 c2 A2 | d4 d4 c8 | z4 c8 A4- | A4 F8 E4 | %33
w: _ et|Do- mi-|nus in cir-|cu- * * * * * * *|* i- tu,|in cir-|* cu- i-|
 F2 G2 A2 B2 c4 d4- | d2 d2 d4 ^c8- | c8 =B8 | c12 c4 | A8 d8 | =B8 c4 A4- | A4 F8 E2 D2 | %40
w: tu _ _ _ _ po-|* pu- li su-|* i,|ex hoc|nunc et|us- que in|_ sae- * *|
 G4 A4 G6 A2 | B8 z8 | z16 | z16 | z8 c8- | c4 B4 A4 G4 | F12 G4 | A6 B2 c8 | d12 c4 | %49
w: * cu- lum. _|_|||Qui-|* a non re-|lin- quet|Do- mi- nus|vir- gam|
 B4 A4 B6 A2 | G2 F2 B4 A8 | z8 c8- | c4 c4 A8 | A4 d4 d6 c2 | B2 A2 G8 ^F4 | G4 =B4 B4 B4 | %56
w: pec- ca- to- *|* * * rum|su-|* per sor-|tem ju- sto- *||rum: ut non ex-|
 c2 B2 A2 G2 F4 D4 | _E8 D8 | z4 A8 =B4 | c4 c4 G8 | A4 B8 c4 | d8 G4 B4- | B4 c4 _e8- | e8 _e8 | %64
w: ten- * * * * dant|ju- sti|ad i-|ni- qui- ta-|tem, ad i-|ni- qui- ta-|* tem ma-|* nus|
 _e12 d4 | d8 z8 |[M:3/2] G6 G2 G4 | d6 _e2 d4 | d8 c4 |[M:4/2] c8 d8- | d4 c2 B2 A4 d4 | c8 d8 | %72
w: su- *|as,|be- ne- fac,|Do- mi- ne,|bo- nis,|et re-|* * * * ctis|cor- *|
 d16- | d8 z8 | z4 G8 F4 | B4 A4 B4 c4 | d8 A4 A4 | B4 c4 d2 B2 c4 | d8 z4 d4 | c4 c4 d4 c4 | %80
w: de.|_|De- cli-|nan- tes au- tem|in o- bli-|ga- ti- o- * *|nes, in|o- bli- ga- ti-|
 B2 G2 B8 A4 | B4 d4 d4 d4 | c6 c2 F4 G4 | A4 A4 F4 D4 | G8 z8 | F16 | G8 E8 | F6 F2 E8 | D16 | %89
w: o- * * *|nes, ad- du- cet|Do- mi- nus, ad-|du- cet Do- mi-|nus|cum|o- pe-|ran- ti- bus|i-|
 G6 FG A4 F4 | E8 E8 | z8 G8- | G8 G8- | G8 A8 | B6 A2 G8 | ^F4 G8 F2 E2 | ^F8 z8 | D8 E8- | %98
w: ni- * * * qui-|ta- tem.|Pax|_ su-|* per|Is- * *|ra- ël, _ _|_|Pax su-|
 E8 F8- | F8 c8 | A4 B8 A2 G2 | A16 |] %102
w: * per|_ Is-|ra- ël! _ _|_|
V:3
 x8 | x8 |[M:4/2][K:bass] z8 F,8- | F,8 D,8 | F,8 F,8- | F,4 G,4 F,8- | F,4 E,4 E,8 | D,12 D,4 | %8
w: ||Qui|_ con-|fi- dunt|_ in Do-|* mi- no,|si- cut|
 G,8 B,8 | A,8 z8 | z4 G,4 G,4 G,4 | F,6 F,2 D,4 F,4- | F,4 F,4 G,8 | F,8 z8 | z16 | z16 | %16
w: mons Si-|on:|non com- mo-|ve- bi- tur in|_ ae- ter-|num,|||
 z4 D,8 F,4- | F,4 F,4 F,8- | F,8 G,8 | A,4 C6 B,2 A,4- | A,2 G,2 F,8 E,4 | F,8 z8 | %22
w: qui ha-|* bi- tat|_ in|Je- ru- * *|* * * sa-|lem.|
 z4 F,6 G,2 A,4 | D,4 F,4 F,4 F,4- | F,2 G,2 A,2 F,2 G,4 G,4 | A,8 B,8 | F,16 | z16 | z16 | %29
w: Mon- * *|tes in cir- cu-|* * * * * i-|tu e-|jus;|||
 z8 z4 E,4 | F,4 E,2 D,2 F,4 E,4 | D,4 F,8 E,4 | F,2 G,2 A,2 F,2 G,4 G,4 | A,8 z4 F,4- | %34
w: et|Do- * * * mi-|nus in cir-|cu- * * * * i-|tu po-|
 F,2 F,2 F,4 E,8- | E,8 E,8 | z4 E,8 E,4 | F,8 ^F,8 | ^G,8 A,4 E,4 | F,6 G,2 A,4 G,2 F,2 | %40
w: * pu- li su-|* i,|ex hoc|nunc et|us- que in|sae- * * * *|
 E,4 F,8 E,4 | F,8 z8 | z16 | z16 | z8 z4 F,4 | F,4 D,8 E,4 | F,2 G,2 A,2 B,2 C4 B,4 | %47
w: * * cu-|lum.|||Qui-|a non re-|lin- * * * * quet|
 A,2 G,2 F,2 G,2 A,2 B,2 C4- | C4 B,4 A,8 | F,12 F,4 | D,4 G,8 F,4- | F,4 E,4 F,8 | z8 F,8- | %53
w: Do- * * * * * *|* mi- nus|vir- gam|pec- ca- to-|* * rum|su-|
 F,4 F,4 F,8 | G,4 G,4 A,8 | G,8 z8 | z16 | G,8 G,4 G,4 | A,2 G,2 F,2 E,2 D,4 G,4 | F,8 E,8 | %60
w: * per sor-|tem ju- sto-|rum:||ut non ex-|ten- * * * * dant|ju- sti|
 z8 z4 G,4 | A,4 B,8 G,4 | G,12 G,4 | _A,12 A,4 | G,16 | G,8 z8 |[M:3/2] E,6 D,2 E,4 | %67
w: ad|i- ni- qui-|ta- tem|ma- nus|su-|as,|be- ne- fac,|
 F,6 G,2 F,4 | F,8 F,4 |[M:4/2] E,8 F,8- | F,4 G,4 F,8- | F,8 F,8 | z16 | z16 | z4 B,8 A,4 | %75
w: Do- mi- ne,|bo- nis,|et re-|* ctis cor-|* de.|||De- cli-|
 G,4 F,4 _E,8 | D,8 F,8 | G,4 A,4 D,4 A,4 | B,8 A,8 | z16 | z16 | z4 F,4 F,4 G,4 | A,6 A,2 D,8 | %83
w: nan- tes au-|tem in|o- bli- ga- ti-|o- nes,|||ad- du- cet|Do- mi- nus,|
 z4 F,4 F,4 F,4 | E,2 F,2 G,2 E,2 F,4 G,4 | A,4 A,4 B,8- | B,4 G,8 A,4- | A,4 A,4 A,8 | ^F,12 G,4 | %89
w: ad- du- cet|Do- * * * * mi-|nus cum o-|* pe- ran-|* ti- bus|i- ni-|
 E,4 E,8 D,4- | D,4 ^C,4 C,8 | z8 D,8- | D,8 E,8- | E,8 F,8- | F,8 C6 B,2 | A,4 B,4 A,8- | A,8 z8 | %97
w: qui- ta- *|* * tem.|Pax|_ su-|* per|_ Is- *|* ra- ël,|_|
 G,16 | G,8 A,8 | B,6 A,2 G,8 | ^F,4 G,8 F,2 E,2 | ^F,16 |] %102
w: Pax|su- per|Is- * *|ra- ël! _ _|_|
V:4
 x8 | x8 |[M:4/2] D,16 | D,8 F,8- | F,8 B,,8 | B,,8 D,8- | D,4 A,,4 A,,8 | z4 A,8 A,4 | B,8 G,8 | %9
w: ||Qui|con- fi-|* dunt|in Do-|* mi- no,|si- cut|mons Si-|
 F,16 | z16 | z8 z4 D,4 | D,4 D,4 C,6 C,2 | A,,4 B,,8 G,,4 | _E,8 D,8- | D,8 z8 | G,,8 D,8- | %17
w: on:||non|com- mo- ve- bi-|tur in ae-|ter- num,|_|qui ha-|
 D,4 D,4 D,8 | B,,16 | F,,8 A,,8- | A,,4 A,,4 C,8 | z8 F,6 G,2 | A,4 D,4 F,8 | %23
w: * bi- tat|in|Je- ru-|* sa- lem.|Mon- *|* tes in|
 F,4 B,,2 A,,2 B,,2 C,2 D,4- | D,4 D,4 C,8 | F,8 B,,8 | B,,8 z8 | z16 | z8 z4 C,4 | D,12 C,4 | %30
w: cir- cu- * * * *|* i- tu|e- *|jus;||et|Do- mi-|
 B,,8 A,,4 C,4 | B,,2 A,,2 F,,2 G,,2 A,,2 B,,2 C,2 A,,2 | D,4 D,4 C,8 | z4 F,6 F,2 D,4 | D,8 A,,8 | %35
w: nus in cir-|cu- * * * * * * *|* i- tu|po- pu- li|su- *|
 A,,8 z8 | A,,12 A,,4 | D,8 =B,,8 | E,8 A,,8 | D,16 | C,12 C,4 | B,,8 z8 | D,12 E,4 | %43
w: i,|ex hoc|nunc et|us- que|in|sae- cu-|lum.|Qui- a|
 F,4 G,4 A,8- | A,4 G,4 F,6 E,2 | D,8 z8 | z16 | F,12 F,4 | D,4 G,4 F,8 | D,8 B,,8- | %50
w: non re- lin-|* quet Do- mi-|nus||vir- gam|pec- ca- to-|rum su-|
 B,,4 G,,4 D,8 | C,8 z8 | F,12 F,4 | D,8 B,,4 B,,4 | _E,8 D,8 | z4 G,4 G,4 G,4 | %56
w: * per sor-|tem,|su- per|sor- tem ju-|sto- rum:|ut non ex-|
 A,2 G,2 F,2 E,2 D,2 C,2 B,,2 A,,2 | G,,4 C,4 B,,8 | A,,8 z8 | z8 z4 C,4- | C,4 D,4 _E,8 | %61
w: ten- * * * * * * *|* dant ju-|sti|ad|_ i- ni-|
 D,8 _E,8- | E,8 C,8 | _A,,12 A,,4 | C,12 G,,4 | G,,8 z8 |[M:3/2] C,6 =B,,2 C,4 | D,6 C,2 D,4 | %68
w: qui- ta-|* tem|ma- nus|su- *|as,|be- ne- fac,|Do- mi- ne,|
 B,,8 F,,4 |[M:4/2] C,8 B,,8- | B,,4 G,,4 D,6 E,2 | F,8 B,,8 | z4 B,8 A,4 | G,4 F,4 _E,8 | %74
w: bo- nis,|et re-|* ctis cor- *|* de.|De- cli-|nan- tes au-|
 D,4 B,,4 C,4 D,4 | G,,4 D,4 G,8- | G,4 F,4 z4 D,4- | D,4 C,4 B,,4 A,,4 | G,,8 D,4 D,4 | %79
w: tem in o- bli-|ga- ti- o-|* nes, De-|* cli- nan- tes|au- tem in|
 E,4 F,4 B,,4 F,4 | G,8 F,8 | z4 B,,4 B,,4 B,,4 | A,,2 B,,2 C,2 A,,2 B,,4 B,,4 | A,,4 D,4 D,4 D,4 | %84
w: o- bli- ga- ti-|o- nes,|ad- du- cet|Do- * * * * mi-|nus, ad- du- cet|
 C,6 C,2 B,,8 | z8 B,,8 | _E,8 C,8 | D,6 D,2 A,,8 | z4 D,4 =B,,4 B,,4 | C,8 A,,8 | A,,16 | %91
w: Do- mi- nus|cum|o- pe-|ran- ti- bus|i- ni- qui-|ta- *|tem.|
 z8 G,,8- | G,,8 C,8- | C,8 F,,8 | B,,8 C,8 | D,16- | D,8 z8 | G,,8 C,8- | C,8 F,,8 | B,,8 C,8 | %100
w: Pax|_ su-|* per|Is- ra-|ël,|_|Pax su-|* per|Is- ra-|
 D,16- | D,16 |] %102
w: ël!|_|

